X: 307
T:Over the Bog Road
T:Hurricane's Victory, The
R:reel
D:De Dannan: Selected Jigs and Reels.
Z:Henrik Norbeck : id:hn-reel-14
M:C|
K:G
GEDE ~G3A|Bdgd BGEG|AGEG ~A3c|Bdgd BGAF|
GEDE ~G3A|Bdgd BGEG|Bdgd Bedc|BdAc BG~G2:|
|:gede ~g3a|bgaf gfed|ageg ~a3b|c'abg agef|
gede ~g3a|bgaf gfed|Bdgd Bedc|BdAc BG~G2:|

